X:1
T: The Life Boat
C:
R:Reel
Q: 232
K:F
M:4/4
L:1/8
|:AB cd c2 f2|AB cd c2 f2|ef gf ed cd|ef gf ed cB|
AB cd c2 f2|AB cd c2 f2|eg fe df ed|c2 e2 c2 z2|
g^f ga g2 c2|g^f ga bg eg|fe fg f2 c2|FA cf af cA|
g^f ga g2 c2|g^f ga bg eg|fa gf ed c=B|c2 e2 c2 z2:|
